packages/katcn/src/icons/svg/sun.svg

<svg width="24" height="25" viewBox="0 0 24 25" fill="none" xmlns="http://www.w3.org/2000/svg">
<path d="M12 6.16797C8.4 6.16797 5.5 9.06797 5.5 12.668C5.5 16.268 8.4 19.168 12 19.168C15.6 19.168 18.5 16.268 18.5 12.668C18.5 9.06797 15.6 6.16797 12 6.16797ZM12 17.068C9.5 17.068 7.5 15.068 7.5 12.568C7.5 10.068 9.5 8.06797 12 8.06797C14.5 8.06797 16.5 10.068 16.5 12.568C16.5 15.068 14.5 17.068 12 17.068Z" fill="black"/>
<path d="M12 5.56796C12.6 5.56796 13 5.16796 13 4.56796V2.96796C13 2.36796 12.6 1.96796 12 1.96796C11.4 1.96796 11 2.36796 11 2.96796V4.56796C11 5.06796 11.4 5.56796 12 5.56796Z" fill="black"/>
<path d="M5.29999 7.66795C5.49999 7.86795 5.79999 7.96795 5.99999 7.96795C6.19999 7.96795 6.49999 7.86795 6.69999 7.66795C7.09999 7.26795 7.09999 6.66795 6.69999 6.26795L5.59999 5.16795C5.19999 4.76795 4.59999 4.76795 4.19999 5.16795C3.79999 5.56795 3.79999 6.16795 4.19999 6.56795L5.29999 7.66795Z" fill="black"/>
<path d="M4.6 12.968C4.6 12.368 4.2 11.968 3.6 11.968H2C1.4 11.968 1 12.368 1 12.968C1 13.568 1.4 13.968 2 13.968H3.6C4.1 13.968 4.6 13.568 4.6 12.968Z" fill="black"/>
<path d="M5.29999 18.268L4.19999 19.368C3.79999 19.768 3.79999 20.368 4.19999 20.768C4.39999 20.968 4.69999 21.068 4.89999 21.068C5.09999 21.068 5.39999 20.968 5.59999 20.768L6.69999 19.668C7.09999 19.268 7.09999 18.668 6.69999 18.268C6.29999 17.868 5.69999 17.868 5.29999 18.268Z" fill="black"/>
<path d="M12 20.368C11.4 20.368 11 20.768 11 21.368V22.968C11 23.568 11.4 23.968 12 23.968C12.6 23.968 13 23.568 13 22.968V21.368C13 20.868 12.6 20.368 12 20.368Z" fill="black"/>
<path d="M18.7 18.268C18.3 17.868 17.7 17.868 17.3 18.268C16.9 18.668 16.9 19.268 17.3 19.668L18.4 20.768C18.6 20.968 18.9 21.068 19.1 21.068C19.3 21.068 19.6 20.968 19.8 20.768C20.2 20.368 20.2 19.768 19.8 19.368L18.7 18.268Z" fill="black"/>
<path d="M22 11.968H20.4C19.8 11.968 19.4 12.368 19.4 12.968C19.4 13.568 19.8 13.968 20.4 13.968H22C22.6 13.968 23 13.568 23 12.968C23 12.368 22.6 11.968 22 11.968Z" fill="black"/>
<path d="M18 7.96795C18.3 7.96795 18.5 7.86795 18.7 7.66795L19.8 6.56795C20.2 6.16795 20.2 5.56795 19.8 5.16795C19.4 4.76795 18.8 4.76795 18.4 5.16795L17.3 6.26795C16.9 6.66795 16.9 7.26795 17.3 7.66795C17.5 7.86795 17.7 7.96795 18 7.96795Z" fill="black"/>
</svg>

<svg xmlns="http://www.w3.org/2000/svg" fill="none" viewBox="0 0 24 25"><path fill="#000" d="M12 6.168c-3.6 0-6.5 2.9-6.5 6.5s2.9 6.5 6.5 6.5 6.5-2.9 6.5-6.5-2.9-6.5-6.5-6.5m0 10.9c-2.5 0-4.5-2-4.5-4.5s2-4.5 4.5-4.5 4.5 2 4.5 4.5-2 4.5-4.5 4.5m0-11.5c.6 0 1-.4 1-1v-1.6c0-.6-.4-1-1-1s-1 .4-1 1v1.6c0 .5.4 1 1 1m-6.7 2.1c.2.2.5.3.7.3s.5-.1.7-.3c.4-.4.4-1 0-1.4l-1.1-1.1c-.4-.4-1-.4-1.4 0s-.4 1 0 1.4zm-.7 5.3c0-.6-.4-1-1-1H2c-.6 0-1 .4-1 1s.4 1 1 1h1.6c.5 0 1-.4 1-1m.7 5.3-1.1 1.1c-.4.4-.4 1 0 1.4.2.2.5.3.7.3s.5-.1.7-.3l1.1-1.1c.4-.4.4-1 0-1.4s-1-.4-1.4 0m6.7 2.1c-.6 0-1 .4-1 1v1.6c0 .6.4 1 1 1s1-.4 1-1v-1.6c0-.5-.4-1-1-1m6.7-2.1c-.4-.4-1-.4-1.4 0s-.4 1 0 1.4l1.1 1.1c.2.2.5.3.7.3s.5-.1.7-.3c.4-.4.4-1 0-1.4zm3.3-6.3h-1.6c-.6 0-1 .4-1 1s.4 1 1 1H22c.6 0 1-.4 1-1s-.4-1-1-1m-4-4c.3 0 .5-.1.7-.3l1.1-1.1c.4-.4.4-1 0-1.4s-1-.4-1.4 0l-1.1 1.1c-.4.4-.4 1 0 1.4.2.2.4.3.7.3"/></svg>
